src/assets/elogios/elogio_atencioso.svg

<svg width="125" height="125" xmlns="http://www.w3.org/2000/svg">
 <title>Ativo 210elogios</title>

 <g>
  <title>Layer 1</title>
  <rect class="cls-1" width="125" height="125" rx="7.12" fill="#253150" id="svg_1"/>
  <path class="cls-2" d="m56.94,71c0.44,0 0.89,0 1.34,0l2,0.13l8.06,-8.71a5.57,5.57 0 0 1 8.9,6.58l-11.17,19.33a32.94,32.94 0 0 1 -13.36,12.67l0,9.52a2.05,2.05 0 0 1 -2.05,2l-28.66,0a2,2 0 0 1 -2,-2l0,-9.52a3.63,3.63 0 0 0 -0.19,-1.14a3.5,3.5 0 0 0 -0.52,-1a17,17 0 0 1 -3.2,-9.91l0,-44.78a5.11,5.11 0 1 1 10.21,0l0,-5.12a5.11,5.11 0 0 1 10.22,0l0,-6.05a5.11,5.11 0 0 1 5.2,-5.11a5.18,5.18 0 0 1 5,5.22l0,3a5.09,5.09 0 0 1 5.21,-5.11a5.18,5.18 0 0 1 5,5.22l0.01,34.78z" fill="#ffe0d1" id="svg_2"/>
  <path class="cls-2" d="m56.94,71c0.44,0 0.89,0 1.34,0l2,0.13l8.06,-8.71a5.57,5.57 0 0 1 8.9,6.58l-11.17,19.33a32.94,32.94 0 0 1 -13.36,12.67l0,9.52a2.05,2.05 0 0 1 -2.05,2l-28.66,0a2,2 0 0 1 -2,-2l0,-9.52a3.63,3.63 0 0 0 -0.19,-1.14a3.5,3.5 0 0 0 -0.52,-1a17,17 0 0 1 -3.2,-9.91l0,-44.78a5.11,5.11 0 1 1 10.21,0l0,-5.12a5.11,5.11 0 0 1 10.22,0l0,-6.05a5.11,5.11 0 0 1 5.2,-5.11a5.18,5.18 0 0 1 5,5.22l0,3a5.09,5.09 0 0 1 5.21,-5.11a5.18,5.18 0 0 1 5,5.22l0.01,34.78z" fill="#ffe0d1" id="svg_3"/>
  <path class="cls-3" d="m27.35,108.74a2,2 0 0 1 -2.05,-2l0,-9.27a3.49,3.49 0 0 0 -0.18,-1.11a3.59,3.59 0 0 0 -0.52,-1a16,16 0 0 1 -3.2,-9.61l0,-43.39a4.81,4.81 0 0 1 1.14,-3.12a5.11,5.11 0 0 0 -6.47,4.93l0,44.72a17,17 0 0 0 3.2,9.91a3.5,3.5 0 0 1 0.52,1a3.63,3.63 0 0 1 0.21,1.2l0,9.57a2,2 0 0 0 2,2l28.66,0a2.05,2.05 0 0 0 2.05,-2l0,-1.81l-25.36,-0.02z" fill="#ffd1c2" id="svg_4"/>
  <path class="cls-4" d="m58,97.52l0,0.06l0.26,-0.2l-0.26,0.14z" fill="#fcf0b6" id="svg_5"/>
  <path class="cls-3" d="m57.31,71.05l-0.37,0l0,-4.05l0,0a25.86,25.86 0 0 0 -16.65,6.08l-3.09,2.61l-5.75,5.31a9.37,9.37 0 0 0 -2.95,6.82l0,3.68a5.75,5.75 0 0 0 5.76,5.75l23.05,0l0,-26.2z" fill="#ffd1c2" id="svg_6"/>
  <path class="cls-2" d="m75.91,61.92a5.56,5.56 0 0 1 1.36,7.17l-11.2,19.24a32.94,32.94 0 0 1 -13.36,12.67l0,1l-20.14,0l0,-10.44a13.92,13.92 0 0 1 4.43,-10.12l2.9,-2.73l3,-2.54a21.73,21.73 0 0 1 14.04,-5.17c0.44,0 0.89,0 1.34,0l2,0.13l8.06,-8.71a5.56,5.56 0 0 1 7.54,-0.59l0.03,0.09z" fill="#ffe0d1" id="svg_7"/>
  <path class="cls-5" d="m101.82,12.4l-31.68,0a7.11,7.11 0 0 0 -7.14,7.11l0,18.66a7.11,7.11 0 0 0 7.11,7.11l1.89,0l0,2.72a1.37,1.37 0 0 0 2.11,1.16l6.24,-3.91l21.48,0a7.11,7.11 0 0 0 7.11,-7.11l0,-18.63a7.11,7.11 0 0 0 -7.11,-7.11l-0.01,0z" fill="#b3e5ee" id="svg_8"/>
  <path class="cls-6" d="m86,34.47a1.53,1.53 0 0 1 -1.52,-1.53l0,-3.85a1.53,1.53 0 0 1 1.52,-1.53a4.38,4.38 0 0 0 4.35,-4.56a4.38,4.38 0 0 0 -4.28,-4.13l-0.07,0a4.38,4.38 0 0 0 -4.33,3.75c0,0.21 0,0.41 0,0.62a1.53,1.53 0 0 1 -3,0a7.17,7.17 0 0 1 0.07,-1a7.43,7.43 0 0 1 7.26,-6.47l0.15,0a7.45,7.45 0 0 1 7.26,7a7.44,7.44 0 0 1 -5.88,7.66l0,2.48a1.54,1.54 0 0 1 -1.53,1.56z" fill="#f9f7f7" id="svg_9"/>
  <path class="cls-7" d="m77.06,40a4.4,4.4 0 0 1 -4.41,-4.41l0,-20.89a4.39,4.39 0 0 1 0.64,-2.3l-3.15,0a7.11,7.11 0 0 0 -7.14,7.11l0,18.66a7.11,7.11 0 0 0 7.11,7.11l1.89,0l0,2.72a1.37,1.37 0 0 0 2.11,1.16l6.24,-3.91l21.48,0a7.11,7.11 0 0 0 6.88,-5.25l-31.65,0z" fill="#86d7e5" id="svg_10"/>
  <path class="cls-6" d="m86,41.07a1.53,1.53 0 0 1 -1.52,-1.53l0,-1.21a1.53,1.53 0 1 1 3.05,0l0,1.21a1.54,1.54 0 0 1 -1.53,1.53z" fill="#f9f7f7" id="svg_11"/>
  <path class="cls-3" d="m50.84,36.08a5.08,5.08 0 0 1 1.5,-3.61a4.78,4.78 0 0 1 1.52,-1.06a5,5 0 0 0 -2,-0.43a5.09,5.09 0 0 0 -5.11,5.1l0,25.83a4.13,4.13 0 0 0 4.12,-4.13l-0.03,-21.7z" fill="#ffd1c2" id="svg_12"/>
  <path class="cls-3" d="m30.4,39.87a5.11,5.11 0 0 1 4,-5a5,5 0 0 0 -3,-1a5.12,5.12 0 0 0 -5.11,5.11l0,22.93a4.12,4.12 0 0 0 4.12,-4.12l0,-17.92l-0.01,0z" fill="#ffd1c2" id="svg_13"/>
  <path class="cls-3" d="m40.7,33.34a5.12,5.12 0 0 1 3.42,-4.83a5,5 0 0 0 -2.51,-0.67a5.1,5.1 0 0 0 -5.11,5.16l0,29a4.2,4.2 0 0 0 4.2,-4.2l0,-24.46z" fill="#ffd1c2" id="svg_14"/>
 </g>
</svg>

<svg xmlns="http://www.w3.org/2000/svg" viewBox="0 0 125 125"><defs><style>.cls-1{fill:#023047;}.cls-2{fill:#ffe0d1;}.cls-3{fill:#ffd1c2;}.cls-4{fill:#fcf0b6;}.cls-5{fill:#b3e5ee;}.cls-6{fill:#f9f7f7;}.cls-7{fill:#86d7e5;}</style></defs><title>Ativo 210elogios</title><g id="Camada_2" data-name="Camada 2"><g id="Extras"><rect class="cls-1" width="125" height="125" rx="7.12"/><path class="cls-2" d="M56.94,71c.44,0,.89,0,1.34,0l2,.13,8.06-8.71a5.57,5.57,0,0,1,8.9,6.58L66.07,88.33A32.94,32.94,0,0,1,52.71,101v9.52a2.05,2.05,0,0,1-2.05,2H22a2,2,0,0,1-2-2V101a3.63,3.63,0,0,0-.19-1.14,3.5,3.5,0,0,0-.52-1,17,17,0,0,1-3.2-9.91V44.17a5.11,5.11,0,1,1,10.21,0V39.05a5.11,5.11,0,0,1,10.22,0V33a5.11,5.11,0,0,1,5.2-5.11,5.18,5.18,0,0,1,5,5.22v3A5.09,5.09,0,0,1,51.93,31a5.18,5.18,0,0,1,5,5.22Z"/><path class="cls-2" d="M56.94,71c.44,0,.89,0,1.34,0l2,.13,8.06-8.71a5.57,5.57,0,0,1,8.9,6.58L66.07,88.33A32.94,32.94,0,0,1,52.71,101v9.52a2.05,2.05,0,0,1-2.05,2H22a2,2,0,0,1-2-2V101a3.63,3.63,0,0,0-.19-1.14,3.5,3.5,0,0,0-.52-1,17,17,0,0,1-3.2-9.91V44.17a5.11,5.11,0,1,1,10.21,0V39.05a5.11,5.11,0,0,1,10.22,0V33a5.11,5.11,0,0,1,5.2-5.11,5.18,5.18,0,0,1,5,5.22v3A5.09,5.09,0,0,1,51.93,31a5.18,5.18,0,0,1,5,5.22Z"/><path class="cls-3" d="M27.35,108.74a2,2,0,0,1-2.05-2V97.47a3.49,3.49,0,0,0-.18-1.11,3.59,3.59,0,0,0-.52-1,16,16,0,0,1-3.2-9.61V42.36a4.81,4.81,0,0,1,1.14-3.12,5.11,5.11,0,0,0-6.47,4.93V88.89a17,17,0,0,0,3.2,9.91,3.5,3.5,0,0,1,.52,1A3.63,3.63,0,0,1,20,101v9.57a2,2,0,0,0,2,2H50.66a2.05,2.05,0,0,0,2.05-2v-1.81Z"/><path class="cls-4" d="M58,97.52v.06l.26-.2-.26.14Z"/><path class="cls-3" d="M57.31,71.05h-.37V67h0a25.86,25.86,0,0,0-16.65,6.08l-3.09,2.61L31.45,81a9.37,9.37,0,0,0-2.95,6.82v3.68a5.75,5.75,0,0,0,5.76,5.75H57.31Z"/><path class="cls-2" d="M75.91,61.92a5.56,5.56,0,0,1,1.36,7.17L66.07,88.33A32.94,32.94,0,0,1,52.71,101v1H32.57V91.56A13.92,13.92,0,0,1,37,81.44l2.9-2.73,3-2.54A21.73,21.73,0,0,1,56.94,71c.44,0,.89,0,1.34,0l2,.13,8.06-8.71a5.56,5.56,0,0,1,7.54-.59Z"/><path class="cls-5" d="M101.82,12.4H70.14A7.11,7.11,0,0,0,63,19.51V38.17a7.11,7.11,0,0,0,7.11,7.11H72V48a1.37,1.37,0,0,0,2.11,1.16l6.24-3.91h21.48a7.11,7.11,0,0,0,7.11-7.11V19.51a7.11,7.11,0,0,0-7.11-7.11Z"/><path class="cls-6" d="M86,34.47a1.53,1.53,0,0,1-1.52-1.53V29.09A1.53,1.53,0,0,1,86,27.56,4.38,4.38,0,0,0,90.35,23a4.38,4.38,0,0,0-4.28-4.13H86a4.38,4.38,0,0,0-4.33,3.75c0,.21,0,.41,0,.62a1.53,1.53,0,0,1-3,0,7.17,7.17,0,0,1,.07-1A7.43,7.43,0,0,1,86,15.77h.15a7.45,7.45,0,0,1,7.26,7,7.44,7.44,0,0,1-5.88,7.66v2.48A1.54,1.54,0,0,1,86,34.47Z"/><path class="cls-7" d="M77.06,40a4.4,4.4,0,0,1-4.41-4.41V14.7a4.39,4.39,0,0,1,.64-2.3H70.14A7.11,7.11,0,0,0,63,19.51V38.17a7.11,7.11,0,0,0,7.11,7.11H72V48a1.37,1.37,0,0,0,2.11,1.16l6.24-3.91h21.48A7.11,7.11,0,0,0,108.71,40Z"/><path class="cls-6" d="M86,41.07a1.53,1.53,0,0,1-1.52-1.53V38.33a1.53,1.53,0,1,1,3.05,0v1.21A1.54,1.54,0,0,1,86,41.07Z"/><path class="cls-3" d="M50.84,36.08a5.08,5.08,0,0,1,1.5-3.61,4.78,4.78,0,0,1,1.52-1.06,5,5,0,0,0-2-.43,5.09,5.09,0,0,0-5.11,5.1V61.91a4.13,4.13,0,0,0,4.12-4.13Z"/><path class="cls-3" d="M30.4,39.87a5.11,5.11,0,0,1,4-5,5,5,0,0,0-3-1,5.12,5.12,0,0,0-5.11,5.11V61.91a4.12,4.12,0,0,0,4.12-4.12V39.87Z"/><path class="cls-3" d="M40.7,33.34a5.12,5.12,0,0,1,3.42-4.83,5,5,0,0,0-2.51-.67A5.1,5.1,0,0,0,36.5,33v29a4.2,4.2,0,0,0,4.2-4.2Z"/></g></g></svg>
